X:211
T: ES SPIELT EIN RITTER MIT EINER MAGD
N: E0110B
O: Europa, Mitteleuropa, Deutschland, Brandenburg; Schlesien; Sachsen
R: erzaehlendes Volks - Lied, Sage, Liebe, Leid, Tod
M: 2/4
L: 1/16
K: Bb
F2 | B2F2D2F2 | B2B2B2
d2 | c3AB2G2 | G2F2F2
FF | G2G2G2GG | F2F2F2
F2 | B2B2d2B2 | c4B2

@@@ Tune index: 3861
